pwa/public/bubbles2.svg

<svg width="68" height="404" viewBox="0 0 68 404" fill="none" xmlns="http://www.w3.org/2000/svg">
<path d="M34.7012 267.867L34.701 267.878V267.883C34.5115 276.334 28.0079 284.526 17.8448 284.703C9.44817 284.847 1.25978 278.156 1.00551 268.051L1.00551 268.051C0.752878 258.091 9.29303 251.049 17.7362 251C26.1803 250.952 34.9159 257.999 34.7012 267.867ZM11.0814 274.146C12.9926 275.547 15.4933 276.316 18.0178 276.285L18.0191 276.291C24.0153 276.205 28.1971 272.36 28.3128 268.03C28.3843 265.458 26.9712 263.341 25.0133 261.912C23.0596 260.486 20.4796 259.67 17.9498 259.68C15.4245 259.689 12.8678 260.513 10.9386 261.951C9.0028 263.394 7.627 265.52 7.70856 268.096L7.70864 268.099C7.79535 270.651 9.15829 272.736 11.0814 274.146Z" stroke="white" stroke-width="2"/>
<path d="M50.2794 39.4476C44.7109 39.3516 41.1643 34.8562 41.063 30.2455C40.9471 24.8135 45.7387 20.9761 50.347 21.0001C54.9552 21.0241 59.6454 24.8664 59.5055 30.3367C59.3656 35.8552 54.8876 39.5245 50.2794 39.4428V39.4476Z" fill="white"/>
<circle cx="29.7543" cy="363.754" r="29.7543" fill="white" fill-opacity="0.48"/>
<circle cx="50.2848" cy="225.555" r="17.555" fill="white" fill-opacity="0.48"/>
<circle cx="47.3093" cy="418.555" r="17.555" fill="white" fill-opacity="0.48"/>
<circle cx="14.8772" cy="137.497" r="12.4968" fill="white" fill-opacity="0.48"/>
<circle cx="29.4567" cy="78.0337" r="8.03365" fill="white" fill-opacity="0.48"/>
<circle cx="37.1928" cy="55.0337" r="8.03365" fill="white" fill-opacity="0.48"/>
<circle cx="19.3403" cy="193.034" r="8.03365" fill="white" fill-opacity="0.48"/>
<circle cx="49.9872" cy="105.497" r="12.4968" fill="white" fill-opacity="0.48"/>
<path d="M47.7887 293C39.31 293.044 30.6949 300.108 30.95 310.173C31.2051 320.318 39.4375 327.066 47.9162 326.917C58.1452 326.738 64.6801 318.475 64.8605 309.998C65.0759 300.011 56.2674 292.956 47.7887 293ZM47.9074 320.887C43.1052 320.97 38.4436 317.141 38.2985 311.386C38.1534 305.679 43.0436 301.687 47.8458 301.666C52.6525 301.639 57.6351 305.639 57.5119 311.298C57.4108 316.099 53.7036 320.786 47.903 320.887H47.9074Z" fill="white"/>
<path d="M28.5032 157C24.0407 157.028 19.5065 161.489 19.6407 167.846C19.775 174.253 24.1078 178.516 28.5703 178.422C33.954 178.308 37.3934 173.09 37.4883 167.736C37.6018 161.428 32.9657 156.972 28.5032 157ZM28.5657 174.613C26.0382 174.665 23.5847 172.247 23.5084 168.612C23.432 165.008 26.0058 162.487 28.5333 162.473C31.0631 162.456 33.6855 164.983 33.6207 168.557C33.5675 171.589 31.6163 174.549 28.5634 174.613H28.5657Z" fill="white"/>
</svg>

<svg xmlns="http://www.w3.org/2000/svg" width="68" height="404" fill="none" xmlns:v="https://vecta.io/nano"><style><![CDATA[.B{fill-opacity:.48}]]></style><path d="M34.701 267.867v.011.005c-.19 8.451-6.693 16.643-16.856 16.82-8.397.144-16.585-6.547-16.839-16.652h0c-.253-9.96 8.288-17.002 16.731-17.051s17.18 6.999 16.965 16.867zm-23.62 6.279c1.911 1.401 4.412 2.17 6.936 2.139l.001.006c5.996-.086 10.178-3.931 10.294-8.261.072-2.572-1.342-4.689-3.299-6.118s-4.534-2.242-7.064-2.232-5.082.833-7.011 2.271c-1.936 1.443-3.312 3.569-3.23 6.145v.003c.087 2.552 1.45 4.637 3.373 6.047z" stroke="#fff" stroke-width="2"/><g fill="#fff"><path d="M50.279 39.448c-5.568-.096-9.115-4.591-9.216-9.202-.116-5.432 4.676-9.269 9.284-9.245s9.298 3.866 9.158 9.337c-.14 5.519-4.618 9.188-9.226 9.106v.005z"/><circle cx="29.754" cy="363.754" r="29.754" class="B"/><circle cx="50.285" cy="225.555" r="17.555" class="B"/><circle cx="47.309" cy="418.555" r="17.555" class="B"/><circle cx="14.877" cy="137.497" r="12.497" class="B"/><circle cx="29.457" cy="78.034" r="8.034" class="B"/><circle cx="37.193" cy="55.034" r="8.034" class="B"/><circle cx="19.34" cy="193.034" r="8.034" class="B"/><circle cx="49.987" cy="105.497" r="12.497" class="B"/><path d="M47.789 293c-8.479.044-17.094 7.108-16.839 17.173.255 10.145 8.488 16.893 16.966 16.744 10.229-.179 16.764-8.442 16.944-16.919.215-9.987-8.593-17.042-17.072-16.998zm.119 27.887c-4.802.083-9.464-3.746-9.609-9.501-.145-5.707 4.745-9.699 9.547-9.72 4.807-.027 9.789 3.973 9.666 9.632-.101 4.801-3.808 9.488-9.609 9.589h.004zM28.503 157c-4.462.028-8.997 4.489-8.862 10.846.134 6.407 4.467 10.67 8.93 10.576 5.384-.114 8.823-5.332 8.918-10.686.113-6.308-4.523-10.764-8.985-10.736zm.063 17.613c-2.527.052-4.981-2.366-5.057-6.001-.076-3.604 2.497-6.125 5.025-6.139s5.152 2.51 5.087 6.084c-.053 3.032-2.004 5.992-5.057 6.056h.002z"/></g></svg>
